X: 068
T: the Whigs of Fife
B: 204 Favourite Country Dances
N: Published by Straight & Skillern, London ca.1775
F: http://imslp.org/wiki/204_Favourite_Country_Dances_(Various) p.34 #68
Z: 2014 John Chambers <jc:trillian.mit.edu>
M: C|
L: 1/8
K: Ddor
N: The key should probaby be F but there's no Bb in the keysig, no B of any sort in the tune, and it ends on D.
% - - - - - - - - - - - - - - - - - - - - - - - - -
f |\
cF F/F/F AGGA | cF F/F/F fgag |\
fF F/F/F AGGA | FDEC D3 :|
|: e |\
fccf gdde | fccd f/e/f/g/ ag |\
fccf gdde | f/g/a ge d3 :|
% - - - - - - - - - - - - - - - - - - - - - - - - -
%%begintext align
%% Cast of 2 Cu. up again cross over 2 Cu. lead up & cast off
%%endtext

%%sep 1 1 500
%%sep 1 1 500
